X:399
T: WER MOECHTE WOHL ZU GANZEN TAGEN
N: F0729
O: Europa, Mitteleuropa, Deutschland
R: Geselligkeits -, Trink -, Moral - Lied, national
M: 4/4
L: 1/8
K: A
EFG | A2A2B2G2 | A4-A
GAB | c2A2F2^D2 | E4z
EFE | B3BB3A | G4E
EFG | A2A2B2B2 | c4-c
BAG | F2B2E2G2 | A4z
EFG | A2A2B2B2 | c4-c
BAG | F2B2E2G2 | A4z

@@@ Tune index: 5830
